black/svg/E056.svg

<svg id="emoji" viewBox="0 0 72 72" xmlns="http://www.w3.org/2000/svg">
  <g id="line">
    <path fill="none" stroke="#000" stroke-linecap="round" stroke-linejoin="round" stroke-width="2" d="m17.8799,50.1671c4.21,5.3772,10.7615,8.8329,18.1201,8.8329,10.6402,0,19.5929-7.2252,22.2195-17.037h-12.9744c-1.9589,3.0309-5.3677,5.037-9.2451,5.037-5.738,0-10.4499-4.3935-10.9551-10h33.9338c.0141-.3316.0213-.6649.0213-1,0-7.4346-3.5275-14.0453-9-18.2497m-36.8061,15.2497c1.2984-9.9675,8.9784-17.93,18.8061-19.6534m4,11.6534c4.2747,0,7.9799,2.4383,9.8006,6h-19.6012c1.8207-3.5617,5.5259-6,9.8006-6Z"/>
    <path d="m56.8069,18.5776l-.7071.7071h0l.7071-.7071Zm3.192,6.7882l-.9909.1342c.0703.5194.5298.8964,1.053.8639.5231-.0325.9324-.4635.9379-.9876l-1-.0105Zm-34.0467.5408l.7071.7071-.7071-.7071Zm-7.329,30.8547l-.7072.7071h0l.7071-.7071Zm7.0976,3.2307l.0285.9996c.5244-.015.9481-.4327.9705-.9568.0225-.5242-.364-.9765-.8852-1.0363l-.1138.9935Zm-10.1577-3.5551l.7071-.7071h0l-.7071.7071Zm7.8603-33.0135l.7071.7071-.7071-.7071Zm33.0135-7.8603l-.7071.7071.7071-.7071Zm-.3371,3.7216c1.6052,1.6052,2.5713,3.7275,2.9082,6.2153l1.9819-.2684c-.3858-2.849-1.5131-5.3983-3.4759-7.3611l-1.4142,1.4142Zm-29.4405,7.329c5.1626-5.1626,11.0933-8.512,16.4692-9.7889,5.3942-1.2813,10.0598-.4516,12.9713,2.4599l1.4142-1.4142c-3.5849-3.585-9.0747-4.3629-14.8477-2.9916-5.7913,1.3756-12.0397,4.939-17.4213,10.3206l1.4143,1.4142Zm-7.329,29.4405c-2.9116-2.9115-3.7412-7.5771-2.4599-12.9713,1.2769-5.3759,4.6263-11.3066,9.7889-16.4692l-1.4143-1.4142c-5.3815,5.3815-8.9449,11.6299-10.3205,17.4212-1.3713,5.773-.5934,11.2628,2.9915,14.8477l1.4143-1.4142Zm6.5043,2.9443c-2.613-.2995-4.8379-1.2778-6.5043-2.9443l-1.4142,1.4142c2.0387,2.0388,4.7093,3.1754,7.6908,3.5171l.2277-1.987Zm-.1424-.0061c-3.8598.1102-7.1344-.975-9.422-3.2626l-1.4142,1.4142c2.771,2.7711,6.6329,3.9692,10.8933,3.8476l-.0571-1.9992Zm-9.422-3.2626c-3.1358-3.1358-4.0189-8.1548-2.6415-13.9401,1.3731-5.7667,4.9676-12.125,10.5018-17.6592l-1.4142-1.4142c-5.7528,5.7528-9.5613,12.4284-11.0332,18.6102-1.4674,6.1633-.6372,12.0075,3.1729,15.8175l1.4142-1.4142Zm7.8603-31.5993c5.5342-5.5342,11.8925-9.1287,17.6592-10.5018,5.7853-1.3774,10.8043-.4943,13.9401,2.6415l1.4142-1.4142c-3.81-3.8101-9.6542-4.6403-15.8175-3.1729-6.1818,1.4719-12.8574,5.2804-18.6102,11.0332l1.4142,1.4142Zm31.5993-7.8603c2.2211,2.2211,3.3081,5.3714,3.2692,9.0851l1.9999.021c.043-4.1123-1.1653-7.8308-3.8549-10.5203l-1.4142,1.4142Z"/>
  </g>
</svg>

<svg id="emoji" viewBox="0 0 72 72" xmlns="http://www.w3.org/2000/svg">
  <g id="line">
    <path fill="none" stroke="#000" stroke-linecap="round" stroke-linejoin="round" stroke-width="2" d="M17.8799 50.1671C22.0899 55.5443 28.6414 59 36 59C46.6402 59 55.5929 51.7748 58.2195 41.963H45.2451C43.2862 44.9939 39.8774 47 36 47C30.262 47 25.5501 42.6065 25.0449 37H58.9787C58.9928 36.6684 59 36.3351 59 36C59 28.5654 55.4725 21.9547 50 17.7503M13.1939 33C14.4923 23.0325 22.1723 15.07 32 13.3466M36 25C40.2747 25 43.9799 27.4383 45.8006 31H26.1994C28.0201 27.4383 31.7253 25 36 25Z"/>
    <path fill="#000" d="M56.8069 18.5776L56.0998 19.2847V19.2847L56.8069 18.5776ZM59.9989 25.3658L59.008 25.5C59.0783 26.0194 59.5378 26.3964 60.061 26.3639C60.5841 26.3314 60.9934 25.9004 60.9989 25.3763L59.9989 25.3658ZM25.9522 25.9066L26.6593 26.6137L25.9522 25.9066ZM18.6232 56.7613L17.916 57.4684H17.9161L18.6232 56.7613ZM25.7208 59.992L25.7493 60.9916C26.2737 60.9766 26.6974 60.5589 26.7198 60.0348C26.7423 59.5106 26.3558 59.0583 25.8346 58.9985L25.7208 59.992ZM15.5631 56.4369L16.2702 55.7298H16.2702L15.5631 56.4369ZM23.4234 23.4234L24.1305 24.1305L23.4234 23.4234ZM56.4369 15.5631L55.7298 16.2702L56.4369 15.5631ZM56.0998 19.2847C57.705 20.8899 58.6711 23.0122 59.008 25.5L60.9899 25.2316C60.6041 22.3826 59.4768 19.8333 57.514 17.8705L56.0998 19.2847ZM26.6593 26.6137C31.8219 21.4511 37.7526 18.1017 43.1285 16.8248C48.5227 15.5435 53.1883 16.3732 56.0998 19.2847L57.514 17.8705C53.9291 14.2855 48.4393 13.5076 42.6663 14.8789C36.875 16.2545 30.6266 19.8179 25.245 25.1995L26.6593 26.6137ZM19.3303 56.0542C16.4187 53.1427 15.5891 48.4771 16.8704 43.0829C18.1473 37.707 21.4967 31.7763 26.6593 26.6137L25.245 25.1995C19.8635 30.581 16.3001 36.8294 14.9245 42.6207C13.5532 48.3937 14.3311 53.8835 17.916 57.4684L19.3303 56.0542ZM25.8346 58.9985C23.2216 58.699 20.9967 57.7207 19.3303 56.0542L17.9161 57.4684C19.9548 59.5072 22.6254 60.6438 25.6069 60.9855L25.8346 58.9985ZM25.6922 58.9924C21.8324 59.1026 18.5578 58.0174 16.2702 55.7298L14.856 57.144C17.627 59.9151 21.4889 61.1132 25.7493 60.9916L25.6922 58.9924ZM16.2702 55.7298C13.1344 52.594 12.2513 47.575 13.6287 41.7897C15.0018 36.023 18.5963 29.6647 24.1305 24.1305L22.7163 22.7163C16.9635 28.4691 13.155 35.1447 11.6831 41.3265C10.2157 47.4898 11.0459 53.334 14.856 57.144L16.2702 55.7298ZM24.1305 24.1305C29.6647 18.5963 36.023 15.0018 41.7897 13.6287C47.575 12.2513 52.594 13.1344 55.7298 16.2702L57.144 14.856C53.334 11.0459 47.4898 10.2157 41.3265 11.6831C35.1447 13.155 28.4691 16.9635 22.7163 22.7163L24.1305 24.1305ZM55.7298 16.2702C57.9509 18.4913 59.0379 21.6416 58.999 25.3553L60.9989 25.3763C61.0419 21.264 59.8336 17.5455 57.144 14.856L55.7298 16.2702Z"/>
  </g>
</svg>
